X:212
T: ES LEBEN DIE SOLDATEN, SO RECHT VON GOTTES GNADEN
N: Z0211
O: Europa, Mitteleuropa, Deutschland
R: Soldaten - Lied (1813 - 1815)
M: 2/4
L: 1/16
K: D
DF | A2AdF2D2 | B2A2z2
DF | A2A2BAGF | F2E2z2
DF | A2F2GFGA | F4z2
dB | A3FAGFE | D
AAAAFGE | DAAAAF
dB | A3FAGFE | D4z2

@@@ Tune index: 9970
